shared/images/iconfont/kb-iconfont-identity-reddit-16.svg

<?xml version="1.0" encoding="UTF-8"?>
<svg width="16px" height="16px" viewBox="0 0 16 16" version="1.1" xmlns="http://www.w3.org/2000/svg" xmlns:xlink="http://www.w3.org/1999/xlink">
    <!-- Generator: sketchtool 49.2 (51160) - http://www.bohemiancoding.com/sketch -->
    <title>8F9AB23F-3670-46FD-8CB1-7BD4CB071554</title>
    <desc>Created with sketchtool.</desc>
    <defs></defs>
    <g id="Colors,-icons" stroke="none" stroke-width="1" fill="none" fill-rule="evenodd">
        <g id="Icons-2" transform="translate(-277.000000, -308.000000)">
            <g id="kb-iconfont-identity-reddit-16" transform="translate(277.000000, 308.000000)">
                <rect id="icon-area" fill="#D8D8D8" opacity="0" x="0" y="0" width="16" height="16"></rect>
                <path d="M0.231165486,8.46124632 C0.390212492,8.73568 0.593045718,8.95277895 0.852543464,9.11189895 C0.824211204,9.31418105 0.809401159,9.48811789 0.809401159,9.64723789 C0.809401159,10.2978905 0.99742434,10.9195537 1.35866066,11.4980547 C1.73470702,12.0907284 2.26915647,12.6112505 2.96329684,13.0596211 C3.62781713,13.4931747 4.39407598,13.8404042 5.24661945,14.0716758 C6.11397296,14.3029474 7.02446877,14.4189053 7.96394076,14.4189053 C8.90341275,14.4189053 9.81390856,14.3029474 10.666452,14.0716758 C11.5338055,13.8404042 12.3000644,13.4931747 12.9787508,13.0596211 C13.6728912,12.6112505 14.1931745,12.0907284 14.5685769,11.4980547 C14.9304572,10.9195537 15.1178364,10.2978905 15.1178364,9.64723789 C15.1178364,9.48811789 15.1036703,9.32899789 15.0746941,9.15506105 C15.363812,8.99594105 15.5808113,8.77948632 15.7540245,8.49023579 C15.9130715,8.21515789 16,7.91173474 16,7.57932211 C16,7.07297263 15.8261429,6.63941895 15.4649066,6.27801684 C15.1178364,5.91661474 14.6844816,5.74267789 14.1783645,5.74267789 C13.7018674,5.74267789 13.3116549,5.90179789 12.9645847,6.20522105 C11.7070187,5.39609263 10.2041211,4.94772211 8.44108178,4.87557053 L9.37990985,1.91091368 L11.924018,2.51840421 C11.924018,2.92296842 12.083065,3.28437053 12.3721829,3.57362105 C12.6613007,3.86287158 13.007727,4.00781895 13.4269156,4.00781895 C13.8319382,4.00781895 14.1783645,3.86287158 14.4822923,3.55944842 C14.7714102,3.27019789 14.9156471,2.90879579 14.9156471,2.48941474 C14.9156471,2.08420632 14.7714102,1.73762105 14.4822923,1.43355368 C14.1783645,1.14430316 13.8319382,1 13.4269156,1 C13.1236317,1 12.84868,1.08696842 12.5885383,1.24608842 C12.3432067,1.41938105 12.1551835,1.63648 12.0392788,1.91091368 L9.23567289,1.24608842 C9.16355441,1.23127158 9.09143593,1.23127158 9.01867354,1.27507789 C8.94655505,1.31824 8.8886027,1.37621895 8.87443657,1.44837053 L7.79008371,4.86075368 C5.9401159,4.88974316 4.35028976,5.33811368 3.02060528,6.19104842 C2.65936896,5.88762526 2.26915647,5.74267789 1.82099163,5.74267789 C1.31551835,5.74267789 0.881519639,5.91661474 0.535093368,6.27801684 C0.173857051,6.63941895 0,7.07297263 0,7.57932211 C0,7.89756211 0.0721184804,8.18681263 0.231165486,8.46124632 L0.231165486,8.46124632 Z M0.968448165,6.71157053 C1.19961365,6.48029895 1.48873149,6.36434105 1.82099163,6.36434105 C2.06696716,6.36434105 2.28396652,6.43713684 2.48615583,6.56726737 C1.77784932,7.13095158 1.28654218,7.76743158 1.02640052,8.47541895 C0.751448809,8.22997474 0.621377978,7.94072421 0.621377978,7.57932211 C0.621377978,7.24690947 0.737282679,6.95765895 0.968448165,6.71157053 L0.968448165,6.71157053 Z M3.29555699,6.74056 C3.91693496,6.33535158 4.6394076,6.03192842 5.44880876,5.81482947 C6.24404379,5.59837474 7.08242112,5.48241684 7.96394076,5.48241684 C8.8454604,5.48241684 9.68383773,5.59837474 10.4932389,5.81482947 C11.3026401,6.03192842 12.0109466,6.33535158 12.6323245,6.74056 C13.2388925,7.14512421 13.7018674,7.57932211 14.0199614,8.08502737 C14.3374115,8.57720421 14.4964585,9.09772632 14.4964585,9.64723789 C14.4964585,10.1819326 14.3374115,10.7024547 14.0199614,11.2088042 C13.7018674,11.7003368 13.2388925,12.1487074 12.6323245,12.5390989 C12.0109466,12.9436632 11.3026401,13.2477305 10.4932389,13.4641853 C9.68383773,13.6812842 8.8454604,13.7965979 7.96394076,13.7965979 C7.08242112,13.7965979 6.24404379,13.6812842 5.44880876,13.4641853 C4.6394076,13.2477305 3.91693496,12.9436632 3.29555699,12.5390989 C2.68834514,12.1487074 2.22601417,11.7003368 1.90792015,11.2088042 C1.58982614,10.7024547 1.43077914,10.1819326 1.43077914,9.64723789 C1.43077914,9.09772632 1.58982614,8.57720421 1.90792015,8.08502737 C2.22601417,7.57932211 2.68834514,7.14512421 3.29555699,6.74056 L3.29555699,6.74056 Z M4.81326465,9.56026947 C5.02962009,9.77736842 5.28976175,9.87850947 5.60785576,9.87850947 C5.8969736,9.87850947 6.15711526,9.77736842 6.37411462,9.56026947 C6.59047006,9.34317053 6.70637476,9.08290947 6.70637476,8.77948632 C6.70637476,8.47541895 6.59047006,8.21515789 6.37411462,7.99870316 C6.15711526,7.78160421 5.8969736,7.66564632 5.60785576,7.66564632 C5.3045718,7.66564632 5.04443014,7.78160421 4.81326465,7.99870316 C4.59626529,8.21515789 4.48036059,8.47541895 4.48036059,8.77948632 C4.48036059,9.08290947 4.59626529,9.34317053 4.81326465,9.56026947 L4.81326465,9.56026947 Z M5.41983258,11.9316084 C5.95492595,12.4663032 6.80746941,12.7265642 7.99291693,12.7265642 L8.00708307,12.7265642 C9.19253059,12.7265642 10.0450741,12.4663032 10.5795235,11.9316084 C10.6374759,11.8736295 10.666452,11.8014779 10.666452,11.7003368 C10.666452,11.6133684 10.6374759,11.5412168 10.5795235,11.4832379 C10.5222151,11.4252589 10.4494527,11.3962695 10.3631681,11.3962695 C10.2762395,11.3962695 10.2041211,11.4252589 10.1461687,11.4832379 C9.72698004,11.9026189 9.01867354,12.1049011 8.00708307,12.1049011 L7.99291693,12.1049011 C6.98132646,12.1049011 6.27301996,11.9026189 5.85383129,11.4832379 C5.79587894,11.4252589 5.72376046,11.3962695 5.63683194,11.3962695 C5.54990341,11.3962695 5.47778493,11.4252589 5.41983258,11.4832379 C5.36252415,11.5412168 5.33354797,11.6133684 5.33354797,11.7003368 C5.33354797,11.8014779 5.36252415,11.8736295 5.41983258,11.9316084 L5.41983258,11.9316084 Z M9.62588538,9.56026947 C9.84288474,9.77736842 10.1030264,9.87850947 10.4211204,9.87850947 C10.7095943,9.87850947 10.9703799,9.77736842 11.1867354,9.56026947 C11.4037347,9.34317053 11.5189955,9.08290947 11.5189955,8.77948632 C11.5189955,8.47541895 11.4037347,8.21515789 11.1867354,7.99870316 C10.9703799,7.78160421 10.7095943,7.66564632 10.4211204,7.66564632 C10.1171925,7.66564632 9.85705087,7.78160421 9.62588538,7.99870316 C9.40888603,8.21515789 9.29362524,8.47541895 9.29362524,8.77948632 C9.29362524,9.08290947 9.40888603,9.34317053 9.62588538,9.56026947 L9.62588538,9.56026947 Z M13.4269156,1.62166316 C13.6580811,1.62166316 13.8609144,1.70863158 14.0341275,1.88192421 C14.2073406,2.05586105 14.2942692,2.25814316 14.2942692,2.48941474 C14.2942692,2.73550316 14.2073406,2.93778526 14.0341275,3.11107789 C13.8609144,3.28437053 13.6580811,3.37133895 13.4269156,3.37133895 C13.181584,3.37133895 12.9787508,3.28437053 12.8055377,3.11107789 C12.6323245,2.93778526 12.545396,2.73550316 12.545396,2.48941474 C12.545396,2.25814316 12.6323245,2.05586105 12.8055377,1.88192421 C12.9787508,1.70863158 13.181584,1.62166316 13.4269156,1.62166316 L13.4269156,1.62166316 Z M14.1783645,6.36434105 C14.5112685,6.36434105 14.7855763,6.48029895 15.0315518,6.71157053 C15.2627173,6.95765895 15.3779781,7.24690947 15.3779781,7.57932211 C15.3779781,7.95489684 15.219575,8.27313684 14.9156471,8.51922526 C14.6703155,7.79642105 14.1931745,7.15994105 13.484868,6.59625684 C13.6870573,6.43713684 13.9182228,6.36434105 14.1783645,6.36434105 L14.1783645,6.36434105 Z" id="Icon-reddit" fill="#000000"></path>
            </g>
        </g>
    </g>
</svg>

<svg xmlns="http://www.w3.org/2000/svg" width="16" height="16" viewBox="0 0 16 16">
    <path fill="#000" fill-rule="evenodd" d="M.231 8.461a1.8 1.8 0 0 0 .622.65 3.87 3.87 0 0 0-.044.536c0 .65.188 1.273.55 1.851.376.593.91 1.113 1.604 1.562.665.433 1.431.78 2.284 1.012a10.53 10.53 0 0 0 2.717.347c.94 0 1.85-.116 2.702-.347a8.18 8.18 0 0 0 2.313-1.012c.694-.449 1.214-.97 1.59-1.562.361-.578.549-1.2.549-1.85 0-.16-.014-.319-.043-.493.289-.16.506-.376.679-.665.16-.275.246-.578.246-.91 0-.507-.174-.94-.535-1.302a1.714 1.714 0 0 0-1.287-.535c-.476 0-.866.159-1.213.462-1.258-.809-2.76-1.257-4.524-1.33l.939-2.964 2.544.607c0 .405.16.766.448 1.056.29.289.636.434 1.055.434.405 0 .751-.145 1.055-.449.29-.289.434-.65.434-1.07A1.477 1.477 0 0 0 13.426 1c-.302 0-.577.087-.837.246a1.54 1.54 0 0 0-.55.665l-2.803-.665a.286.286 0 0 0-.217.03c-.072.042-.13.1-.145.172L7.79 4.861c-1.85.029-3.44.477-4.77 1.33a1.796 1.796 0 0 0-1.199-.448c-.505 0-.94.174-1.286.535A1.768 1.768 0 0 0 0 7.579c0 .319.072.608.231.882zm.737-1.75c.232-.23.52-.347.853-.347a1.2 1.2 0 0 1 .665.203c-.708.564-1.2 1.2-1.46 1.908a1.136 1.136 0 0 1-.405-.896c0-.332.116-.621.347-.867zm2.328.03c.62-.406 1.343-.71 2.153-.926a9.724 9.724 0 0 1 5.044 0c.81.217 1.518.52 2.14.926.606.404 1.069.838 1.387 1.344.317.492.476 1.013.476 1.562 0 .535-.159 1.055-.476 1.562-.318.491-.781.94-1.388 1.33-.621.405-1.33.709-2.139.925a9.697 9.697 0 0 1-2.53.333 9.51 9.51 0 0 1-2.514-.333c-.81-.216-1.532-.52-2.153-.925-.608-.39-1.07-.839-1.388-1.33-.318-.507-.477-1.027-.477-1.562 0-.55.159-1.07.477-1.562.318-.506.78-.94 1.388-1.344zm1.517 2.82c.217.216.477.318.795.318.289 0 .55-.102.766-.319.216-.217.332-.477.332-.78 0-.305-.116-.565-.332-.781a1.064 1.064 0 0 0-.766-.333c-.303 0-.564.116-.795.333a1.07 1.07 0 0 0-.333.78c0 .304.116.564.333.781zm.607 2.37c.535.535 1.387.796 2.573.796h.014c1.186 0 2.038-.26 2.573-.795a.305.305 0 0 0 .086-.232.294.294 0 0 0-.086-.217.293.293 0 0 0-.217-.087.294.294 0 0 0-.217.087c-.419.42-1.127.622-2.139.622h-.014c-1.012 0-1.72-.202-2.14-.622a.294.294 0 0 0-.216-.087.294.294 0 0 0-.303.304c0 .101.029.174.086.232zm4.206-2.37c.217.216.477.318.795.318.289 0 .55-.102.766-.319.217-.217.332-.477.332-.78a1.07 1.07 0 0 0-.332-.781 1.062 1.062 0 0 0-.766-.333c-.304 0-.564.116-.795.333a1.07 1.07 0 0 0-.332.78c0 .304.115.564.332.781zm3.8-7.94c.232 0 .435.088.608.26.173.175.26.377.26.608a.84.84 0 0 1-.26.622.833.833 0 0 1-.607.26.841.841 0 0 1-.621-.26.84.84 0 0 1-.26-.622c0-.23.086-.433.26-.607a.841.841 0 0 1 .62-.26zm.752 4.743c.333 0 .608.116.854.348.23.246.346.535.346.867 0 .376-.158.694-.462.94-.246-.723-.723-1.36-1.431-1.923.202-.159.433-.232.693-.232z"/>
</svg>
